svgs/sharp-thin/object-subtract.svg

<svg xmlns="http://www.w3.org/2000/svg" viewBox="0 0 512 512"><!--! Font Awesome Pro 6.6.0 by @fontawesome - https://fontawesome.com License - https://fontawesome.com/license (Commercial License) Copyright 2024 Fonticons, Inc. --><path d="M16 16l80 0L96 0 16 0 0 0 0 16 0 96l16 0 0-80zm208 0l0-16L128 0l0 16 96 0zM16 128L0 128l0 96 16 0 0-96zm0 128L0 256l0 80 0 16 16 0 80 0 0-16-80 0 0-80zm112 96l32 0 16 0 48 0 0-16-48 0-16 0-32 0 0 16zm32 32l0 112 0 16 16 0 320 0 16 0 0-16 0-320 0-16-16 0-112 0 0 16 112 0 0 320-320 0 0-112-16 0zM352 176l0-16 0-32-16 0 0 32 0 16 0 48 16 0 0-48zm0-160l0-16L336 0 256 0l0 16 80 0 0 80 16 0 0-80zM256 336l0 16 80 0 16 0 0-16 0-80-16 0 0 80-80 0z"/></svg>

<svg xmlns="http://www.w3.org/2000/svg" viewBox="0 0 512 512"><!--! Font Awesome Pro 6.5.2 by @fontawesome - https://fontawesome.com License - https://fontawesome.com/license (Commercial License) Copyright 2024 Fonticons, Inc. --><path d="M16 16l80 0V0H16 0V16 96H16l0-80zm208 0V0H128V16l96 0zM16 128H0v96H16l0-96zm0 128H0v80 16H16 96V336H16l0-80zm112 96h32l16 0h48V336H176l-16 0H128v16zm32 32l0 112v16h16l320 0h16V496 176l0-16H496l-112 0v16l112 0 0 320-320 0 0-112H160zM352 176V160 128H336v32l0 16v48h16V176zm0-160V0H336 256V16l80 0V96h16V16zM256 336v16h80 16V336 256H336v80H256z"/></svg>
